assets/img/braze_icons/percent-02.svg

<svg fill="none" height="24" viewBox="0 0 24 24" width="24" xmlns="http://www.w3.org/2000/svg"><g clip-rule="evenodd" fill="#801ed7" fill-rule="evenodd"><path d="m19.7071 4.29289c.3905.39053.3905 1.02369 0 1.41422l-13.99999 13.99999c-.39053.3905-1.02369.3905-1.41422 0-.39052-.3905-.39052-1.0237 0-1.4142l14.00001-14.00001c.3905-.39052 1.0237-.39052 1.4142 0z"/><path d="m4 7c0-1.65685 1.34315-3 3-3s3 1.34315 3 3-1.34315 3-3 3-3-1.34315-3-3z"/><path d="m14 17c0-1.6569 1.3431-3 3-3s3 1.3431 3 3-1.3431 3-3 3-3-1.3431-3-3z"/></g></svg>

<svg width="24" height="24" viewBox="0 0 24 24" fill="none" xmlns="http://www.w3.org/2000/svg">
<path fill-rule="evenodd" clip-rule="evenodd" d="M19.7071 4.29289C20.0976 4.68342 20.0976 5.31658 19.7071 5.70711L5.70711 19.7071C5.31658 20.0976 4.68342 20.0976 4.29289 19.7071C3.90237 19.3166 3.90237 18.6834 4.29289 18.2929L18.2929 4.29289C18.6834 3.90237 19.3166 3.90237 19.7071 4.29289Z" fill="#801ED7"/>
<path fill-rule="evenodd" clip-rule="evenodd" d="M4 7C4 5.34315 5.34315 4 7 4C8.65685 4 10 5.34315 10 7C10 8.65685 8.65685 10 7 10C5.34315 10 4 8.65685 4 7Z" fill="#801ED7"/>
<path fill-rule="evenodd" clip-rule="evenodd" d="M14 17C14 15.3431 15.3431 14 17 14C18.6569 14 20 15.3431 20 17C20 18.6569 18.6569 20 17 20C15.3431 20 14 18.6569 14 17Z" fill="#801ED7"/>
</svg>
